X:3664
T:Life On the Ocean Wave
T:(head two ladies cross over)
O:england
R:2nd Change
N:from Chad Miller <CMFiddle@aol.com>
M:6/8
L:1/8
K:G
D|"G"D2D G2A|B3 B2G/2A/2|B^AB c2B|"D7"A3 A2F|
D2F A2B|c3 c2d|e2d cBA|"G"(G3 G2):|
d|"G"dBd g2d|"D7"cBc A2B|cBc e2d|cBA "G"B2d|
dBd g2d|"D7"cBc A2B|cBc e2d|cBA "G"G2|]


